!!!OTL: HIS EM UP HURO JOLLEY
!!!ARE: Europa, Mitteleuropa, Deutschland, Helgoland
!!!SCT: E1502
!!!YEM: Copyright 1995, estate of Helmut Schaffrath.
**kern
*ICvox
*Ivox
*M2/4
*k[f#]
*G:
=1
{8b
8a
8g
8f#
=2
4g
8e
8e}
=3
{8a
8a
8a
8a
=4
4a
8d
8d}
=5
{8g
8a
8b
16a
16cc
=6
4b
8a
16b
16dd}
=7
{4cc
4b
=8
16cc
16b
16a
16g
4a
=9
8d
8d
4r}
==
!!!AGN: Staende -, Seemanns - Lied, bei der Arbeit
!!!ONB: ESAC (Essen Associative Code) Database: ERK3
!!!AMT: simple duple
!!!AIN: vox
!!!EED: Helmut Schaffrath
!!!EEV: 1.0
*-
